svgs/sharp-solid/arrow-up-big-small.svg

<svg xmlns="http://www.w3.org/2000/svg" viewBox="0 0 576 512"><!--! Font Awesome Pro 6.6.0 by @fontawesome - https://fontawesome.com License - https://fontawesome.com/license (Commercial License) Copyright 2024 Fonticons, Inc. --><path d="M320 32l0 224 224 0 0-224L320 32zm0 288l0 160 160 0 0-160-160 0zM183.7 58.5L160 32.4l-23.7 26-80 88L34.8 170.2l47.4 43.1 21.5-23.7L128 162.8 128 448l0 32 64 0 0-32 0-285.2 24.3 26.8 21.5 23.7 47.4-43.1-21.5-23.7-80-88z"/></svg>

<svg xmlns="http://www.w3.org/2000/svg" viewBox="0 0 576 512"><!--! Font Awesome Pro 6.4.0 by @fontawesome - https://fontawesome.com License - https://fontawesome.com/license (Commercial License) Copyright 2023 Fonticons, Inc. --><path d="M320 32V256H544V32H320zm0 288V480H480V320H320zM183.7 58.5L160 32.4l-23.7 26-80 88L34.8 170.2l47.4 43.1 21.5-23.7L128 162.8V448v32h64V448 162.8l24.3 26.8 21.5 23.7 47.4-43.1-21.5-23.7-80-88z"/></svg>
